_inc/images/systems/logos/channelf.svg

<svg data-name="Warstwa 1" viewBox="0 0 264 47" xmlns="http://www.w3.org/2000/svg">
    <path d="M264 27.317c-.35 2.616-.646 5.246-1.064 7.85-.271 1.691-.689 3.364-1.107 5.031a5.345 5.345 0 0 1-4.75 4.319c-5.223.723-10.459 1.63-15.683 2.062a124.092 124.092 0 0 1-31.162-1.512c-.43-.074-.861-.21-1.292-.247-3.82-.29-5.857-2.357-6.669-6.116a69.972 69.972 0 0 1 .117-30.859c.751-3.265 2.51-5.074 5.882-5.666C218.116.445 227.996-.499 237.957.167c6.35.426 12.656 1.431 18.98 2.21a5.333 5.333 0 0 1 4.922 4.603c.702 3.63 1.231 7.289 1.846 10.937.092.561.178 1.123.265 1.685Zm-33.34.451h12.656v-8.642h-12.569v-5.079h12.569V4.611H221.29v37.747h9.383ZM47.608 41.382V28.187H37.241V41.29h-8.866V7.017h8.786v13.116h10.403V7.011h8.94v30.366l.271.068c.203-.407.43-.802.615-1.235 4.298-9.368 8.591-18.746 12.877-28.131a1.71 1.71 0 0 1 1.846-1.203c4.442.055 8.89 0 13.443 0V41.29h-8.755V28.113c-2.215 0-4.27-.043-6.319.043-.32 0-.713.568-.892.957-1.729 3.702-3.445 7.406-5.113 11.183a1.538 1.538 0 0 1-1.642 1.118c-5.014-.063-10.029-.032-15.227-.032Zm29.076-27.248h-.24l-2.726 5.98h2.966Zm32.257 10.554V6.999h8.866v34.377c-2.818 0-5.618.032-8.417-.037-.344 0-.763-.518-.997-.882-3.297-5.117-6.564-10.246-9.843-15.368-.253-.401-.523-.784-.979-1.444V41.29H88.7V6.925c2.805 0 5.604-.037 8.404.037.344 0 .75.525.99.895a11089.82 11089.82 0 0 1 9.844 15.368c.246.388.523.784 1.003 1.463Zm40.686 16.694c-2.818 0-5.537.038-8.269-.043-.388 0-.867-.506-1.12-.901-3.328-5.141-6.62-10.307-9.917-15.466-.228-.358-.48-.691-.948-1.365V41.29h-8.785V6.925c2.774 0 5.574 0 8.373.037.338 0 .751.525.991.895 3.281 5.11 6.562 10.231 9.843 15.361.259.408.529.797 1.028 1.543V6.987h8.81Zm3.107-.092V7.017h19.029v7.734h-10.12v5.456h10.114v7.888h-10.151v5.4h10.139v7.795ZM26.166 20.88c-2.461-4.456-6.152-6.339-10.268-5.407-6.672 1.528-9.193 9.728-4.538 14.761a8.901 8.901 0 0 0 3.449 2.305c4.239 1.548 7.771.061 11.487-5.006v11.288a1.36 1.36 0 0 1-.917 1.512c-6.768 2.845-13.16 2.259-18.827-2.438C.886 33.199-1.224 26.785.689 19.584c1.883-7.099 6.7-11.443 13.905-12.961a16.561 16.561 0 0 1 10.674 1.345c.501.261.858.736.972 1.29.08 3.623.043 7.246.037 10.863-.02.254-.057.508-.111.759Zm157.539 12.634h10.232v7.776h-19.03V6.974h8.798Z" fill="#fff"/>
</svg>

<?xml version="1.0" encoding="utf-8"?>
<svg id="Warstwa_1" data-name="Warstwa 1" viewBox="0 0 264 47" xmlns="http://www.w3.org/2000/svg">
  <title>Sharp_X1_logo</title>
  <path d="M 264 27.317 C 263.65 29.933 263.354 32.563 262.936 35.167 C 262.665 36.858 262.247 38.531 261.829 40.198 C 261.379 42.537 259.444 44.298 257.079 44.517 C 251.856 45.24 246.62 46.147 241.396 46.579 C 230.987 47.388 220.517 46.88 210.234 45.067 C 209.804 44.993 209.373 44.857 208.942 44.82 C 205.122 44.53 203.085 42.463 202.273 38.704 C 200.015 28.538 200.055 17.993 202.39 7.845 C 203.141 4.58 204.9 2.771 208.272 2.179 C 218.116 0.445 227.996 -0.499 237.957 0.167 C 244.307 0.593 250.613 1.598 256.937 2.377 C 259.459 2.546 261.515 4.469 261.859 6.98 C 262.561 10.61 263.09 14.269 263.705 17.917 C 263.797 18.478 263.883 19.04 263.97 19.602 Z M 230.66 27.768 L 243.316 27.768 L 243.316 19.126 L 230.747 19.126 L 230.747 14.047 L 243.316 14.047 L 243.316 4.611 L 221.29 4.611 L 221.29 42.358 L 230.673 42.358 Z" fill="white"/>
  <path d="M 47.608 41.382 L 47.608 28.187 L 37.241 28.187 L 37.241 41.29 L 28.375 41.29 L 28.375 7.017 L 37.161 7.017 L 37.161 20.133 L 47.564 20.133 L 47.564 7.011 L 56.504 7.011 L 56.504 37.377 L 56.775 37.445 C 56.978 37.038 57.205 36.643 57.39 36.21 C 61.688 26.842 65.981 17.464 70.267 8.079 C 70.509 7.281 71.288 6.773 72.113 6.876 C 76.555 6.931 81.003 6.876 85.556 6.876 L 85.556 41.29 L 76.801 41.29 L 76.801 28.113 C 74.586 28.113 72.531 28.07 70.482 28.156 C 70.162 28.156 69.769 28.724 69.59 29.113 C 67.861 32.815 66.145 36.519 64.477 40.296 C 64.275 41.02 63.581 41.493 62.835 41.414 C 57.821 41.351 52.806 41.382 47.608 41.382 Z M 76.684 14.134 L 76.444 14.134 L 73.718 20.114 L 76.684 20.114 Z" fill="white"/>
  <path d="M 108.941 24.688 L 108.941 6.999 L 117.807 6.999 L 117.807 41.376 C 114.989 41.376 112.189 41.408 109.39 41.339 C 109.046 41.339 108.627 40.821 108.393 40.457 C 105.096 35.34 101.829 30.211 98.55 25.089 C 98.297 24.688 98.027 24.305 97.571 23.645 L 97.571 41.29 L 88.7 41.29 L 88.7 6.925 C 91.505 6.925 94.304 6.888 97.104 6.962 C 97.448 6.962 97.854 7.487 98.094 7.857 C 101.376 12.971 104.657 18.094 107.938 23.225 C 108.184 23.613 108.461 24.009 108.941 24.688 Z" fill="white"/>
  <path d="M 149.627 41.382 C 146.809 41.382 144.09 41.42 141.358 41.339 C 140.97 41.339 140.491 40.833 140.238 40.438 C 136.91 35.297 133.618 30.131 130.321 24.972 C 130.093 24.614 129.841 24.281 129.373 23.607 L 129.373 41.29 L 120.588 41.29 L 120.588 6.925 C 123.362 6.925 126.162 6.925 128.961 6.962 C 129.299 6.962 129.712 7.487 129.952 7.857 C 133.233 12.967 136.514 18.088 139.795 23.218 C 140.054 23.626 140.324 24.015 140.823 24.761 L 140.823 6.987 L 149.633 6.987 Z" fill="white"/>
  <path d="M 152.734 41.29 L 152.734 7.017 L 171.763 7.017 L 171.763 14.751 L 161.643 14.751 L 161.643 20.207 L 171.757 20.207 L 171.757 28.095 L 161.606 28.095 L 161.606 33.495 L 171.745 33.495 L 171.745 41.29 Z" fill="white"/>
  <path d="M 26.166 20.88 C 23.705 16.424 20.014 14.541 15.898 15.473 C 9.226 17.001 6.705 25.201 11.36 30.234 C 12.313 31.264 13.494 32.053 14.809 32.539 C 19.048 34.087 22.58 32.6 26.296 27.533 L 26.296 31.668 C 26.296 34.05 26.296 36.433 26.296 38.821 C 26.404 39.483 26.015 40.125 25.379 40.333 C 18.611 43.178 12.219 42.592 6.552 37.895 C 0.886 33.199 -1.224 26.785 0.689 19.584 C 2.572 12.485 7.389 8.141 14.594 6.623 C 18.202 5.871 21.957 6.344 25.268 7.968 C 25.769 8.229 26.126 8.704 26.24 9.258 C 26.32 12.881 26.283 16.504 26.277 20.121 C 26.257 20.375 26.22 20.629 26.166 20.88 Z" fill="white"/>
  <path d="M 183.705 33.514 L 193.937 33.514 L 193.937 41.29 L 174.907 41.29 L 174.907 6.974 L 183.705 6.974 Z" fill="white"/>
</svg>
